packages/foundations/assets/icons/functional/images/human/shower_men.svg

<svg xmlns="http://www.w3.org/2000/svg" width="32" height="32" fill="none"><path fill="#1A1C1F" fill-rule="evenodd" d="M23.067 2.111c-.241.125-.352.24-.46.476-.087.189-.098.368-.099 1.581l-.001 1.369-.28.035c-1.034.131-2.136.389-2.874.674-.662.255-.909.615-.822 1.197.039.261.259.561.505.688.32.166.495.155 1.189-.071.366-.119.974-.282 1.353-.362.627-.133.793-.146 1.862-.148 1.435-.004 2.13.107 3.478.554.595.197.669.199 1.005.03.352-.177.518-.428.547-.83.03-.416-.135-.715-.506-.915-.284-.153-1.072-.408-1.784-.575-.363-.085-1.421-.261-1.602-.266-.019-.001-.045-.619-.056-1.375-.014-.942-.042-1.423-.088-1.533a1.13 1.13 0 0 0-.526-.54c-.228-.098-.643-.092-.841.011m-3.04 8.012c-.357.228-.507.494-.507.896 0 .716.764 1.188 1.413.874.667-.323.75-1.234.153-1.689-.259-.197-.811-.24-1.059-.081m5.986.014c-.537.284-.667 1.02-.264 1.499a.978.978 0 0 0 1.695-.363c.089-.306.067-.474-.104-.785-.234-.427-.865-.594-1.327-.351m-17.106.902c-.594.075-1.019.208-1.627.509-1.034.513-1.782 1.266-2.273 2.292-.36.752-.491 1.326-.491 2.16 0 .866.131 1.419.523 2.213a4.94 4.94 0 0 0 3.217 2.626c.433.115.634.138 1.237.139.496.001.832-.027 1.08-.087 1.738-.429 3.097-1.645 3.649-3.263.646-1.893.137-3.917-1.33-5.289-1.039-.972-2.587-1.477-3.985-1.3m14.274.023c-.736.271-.908 1.168-.322 1.682.249.219.568.3.868.221.64-.169.934-.824.641-1.429-.197-.408-.758-.632-1.187-.474m-12.674 2.122c2.068.758 2.65 3.371 1.098 4.922a2.958 2.958 0 0 1-4.772-.777 2.995 2.995 0 0 1 1.948-4.235c.461-.117 1.28-.074 1.726.09m8.56-.082c-.247.131-.354.24-.46.471a.977.977 0 0 0 .363 1.257c.23.147.291.162.588.145.271-.016.367-.049.528-.179.304-.246.404-.47.382-.856-.022-.387-.19-.651-.522-.82-.252-.129-.654-.137-.879-.018m7.901.072c-.702.445-.573 1.503.215 1.762.458.152.963-.052 1.201-.484.154-.279.114-.775-.083-1.033a.983.983 0 0 0-1.333-.245m-3.901.937a.99.99 0 0 0-.547 1.009c.086.763 1.003 1.137 1.611.659.299-.235.435-.77.292-1.149-.069-.184-.294-.427-.487-.528-.191-.1-.67-.095-.869.009M18.104 16.1a.983.983 0 0 0-.401 1.487c.509.703 1.579.444 1.786-.432.051-.218-.098-.678-.274-.847-.316-.303-.73-.38-1.111-.208m10.064-.046c-.404.172-.648.521-.648.927 0 .299.073.497.257.69.284.301.619.391 1.015.273.795-.236.942-1.301.245-1.779-.197-.134-.672-.195-.869-.111m-5.101 1.048c-.247.131-.354.24-.46.471a.977.977 0 0 0 .363 1.257c.23.147.291.162.588.145.272-.016.368-.049.533-.181.3-.24.398-.463.376-.854-.021-.387-.189-.651-.521-.82-.252-.129-.654-.137-.879-.018M4.273 23.047c-.622.103-1.225.595-1.537 1.252-.286.602-.286.847.005 2.928.276 1.976.314 2.169.467 2.384.148.209.495.374.794.379.28.004.672-.192.812-.405.223-.34.221-.44-.037-2.293-.26-1.864-.28-2.114-.18-2.215.049-.049 1.211-.064 4.903-.064 4.328 0 4.848.009 4.923.084.046.046.084.1.083.12 0 .02-.118.88-.262 1.912-.279 2.003-.282 2.106-.051 2.442.434.634 1.461.516 1.721-.198.108-.297.567-3.637.566-4.125a2.23 2.23 0 0 0-1.868-2.205c-.429-.069-9.919-.066-10.339.004"/></svg>

<svg width="32" height="32" viewBox="0 0 32 32" fill="none" xmlns="http://www.w3.org/2000/svg"><path d="M23.067 2.111 C 22.826 2.236,22.715 2.351,22.607 2.587 C 22.520 2.776,22.509 2.955,22.508 4.168 L 22.507 5.537 22.227 5.572 C 21.193 5.703,20.091 5.961,19.353 6.246 C 18.691 6.501,18.444 6.861,18.531 7.443 C 18.570 7.704,18.790 8.004,19.036 8.131 C 19.356 8.297,19.531 8.286,20.225 8.060 C 20.591 7.941,21.199 7.778,21.578 7.698 C 22.205 7.565,22.371 7.552,23.440 7.550 C 24.875 7.546,25.570 7.657,26.918 8.104 C 27.513 8.301,27.587 8.303,27.923 8.134 C 28.275 7.957,28.441 7.706,28.470 7.304 C 28.500 6.888,28.335 6.589,27.964 6.389 C 27.680 6.236,26.892 5.981,26.180 5.814 C 25.817 5.729,24.759 5.553,24.578 5.548 C 24.559 5.547,24.533 4.929,24.522 4.173 C 24.508 3.231,24.480 2.750,24.434 2.640 C 24.342 2.422,24.115 2.189,23.908 2.100 C 23.680 2.002,23.265 2.008,23.067 2.111 M20.027 10.123 C 19.670 10.351,19.520 10.617,19.520 11.019 C 19.520 11.735,20.284 12.207,20.933 11.893 C 21.600 11.570,21.683 10.659,21.086 10.204 C 20.827 10.007,20.275 9.964,20.027 10.123 M26.013 10.137 C 25.476 10.421,25.346 11.157,25.749 11.636 C 26.259 12.242,27.223 12.036,27.444 11.273 C 27.533 10.967,27.511 10.799,27.340 10.488 C 27.106 10.061,26.475 9.894,26.013 10.137 M8.907 11.039 C 8.313 11.114,7.888 11.247,7.280 11.548 C 6.246 12.061,5.498 12.814,5.007 13.840 C 4.647 14.592,4.516 15.166,4.516 16.000 C 4.516 16.866,4.647 17.419,5.039 18.213 C 5.690 19.532,6.823 20.457,8.256 20.839 C 8.689 20.954,8.890 20.977,9.493 20.978 C 9.989 20.979,10.325 20.951,10.573 20.891 C 12.311 20.462,13.670 19.246,14.222 17.628 C 14.868 15.735,14.359 13.711,12.892 12.339 C 11.853 11.367,10.305 10.862,8.907 11.039 M23.181 11.062 C 22.445 11.333,22.273 12.230,22.859 12.744 C 23.108 12.963,23.427 13.044,23.727 12.965 C 24.367 12.796,24.661 12.141,24.368 11.536 C 24.171 11.128,23.610 10.904,23.181 11.062 M10.507 13.184 C 12.575 13.942,13.157 16.555,11.605 18.106 C 10.149 19.562,7.740 19.170,6.833 17.329 C 5.987 15.613,6.930 13.564,8.781 13.094 C 9.242 12.977,10.061 13.020,10.507 13.184 M19.067 13.102 C 18.820 13.233,18.713 13.342,18.607 13.573 C 18.393 14.039,18.542 14.555,18.970 14.830 C 19.200 14.977,19.261 14.992,19.558 14.975 C 19.829 14.959,19.925 14.926,20.086 14.796 C 20.390 14.550,20.490 14.326,20.468 13.940 C 20.446 13.553,20.278 13.289,19.946 13.120 C 19.694 12.991,19.292 12.983,19.067 13.102 M26.968 13.174 C 26.266 13.619,26.395 14.677,27.183 14.936 C 27.641 15.088,28.146 14.884,28.384 14.452 C 28.538 14.173,28.498 13.677,28.301 13.419 C 27.975 12.992,27.417 12.889,26.968 13.174 M23.067 14.111 C 22.680 14.312,22.472 14.696,22.520 15.120 C 22.606 15.883,23.523 16.257,24.131 15.779 C 24.430 15.544,24.566 15.009,24.423 14.630 C 24.354 14.446,24.129 14.203,23.936 14.102 C 23.745 14.002,23.266 14.007,23.067 14.111 M18.104 16.100 C 17.519 16.366,17.329 17.070,17.703 17.587 C 18.212 18.290,19.282 18.031,19.489 17.155 C 19.540 16.937,19.391 16.477,19.215 16.308 C 18.899 16.005,18.485 15.928,18.104 16.100 M28.168 16.054 C 27.764 16.226,27.520 16.575,27.520 16.981 C 27.520 17.280,27.593 17.478,27.777 17.671 C 28.061 17.972,28.396 18.062,28.792 17.944 C 29.587 17.708,29.734 16.643,29.037 16.165 C 28.840 16.031,28.365 15.970,28.168 16.054 M23.067 17.102 C 22.820 17.233,22.713 17.342,22.607 17.573 C 22.393 18.039,22.542 18.555,22.970 18.830 C 23.200 18.977,23.261 18.992,23.558 18.975 C 23.830 18.959,23.926 18.926,24.091 18.794 C 24.391 18.554,24.489 18.331,24.467 17.940 C 24.446 17.553,24.278 17.289,23.946 17.120 C 23.694 16.991,23.292 16.983,23.067 17.102 M4.273 23.047 C 3.651 23.150,3.048 23.642,2.736 24.299 C 2.450 24.901,2.450 25.146,2.741 27.227 C 3.017 29.203,3.055 29.396,3.208 29.611 C 3.356 29.820,3.703 29.985,4.002 29.990 C 4.282 29.994,4.674 29.798,4.814 29.585 C 5.037 29.245,5.035 29.145,4.777 27.292 C 4.517 25.428,4.497 25.178,4.597 25.077 C 4.646 25.028,5.808 25.013,9.500 25.013 C 13.828 25.013,14.348 25.022,14.423 25.097 C 14.469 25.143,14.507 25.197,14.506 25.217 C 14.506 25.237,14.388 26.097,14.244 27.129 C 13.965 29.132,13.962 29.235,14.193 29.571 C 14.627 30.205,15.654 30.087,15.914 29.373 C 16.022 29.076,16.481 25.736,16.480 25.248 C 16.479 24.152,15.688 23.218,14.612 23.043 C 14.183 22.974,4.693 22.977,4.273 23.047 " fill="#1A1C1F" stroke="none" fill-rule="evenodd"></path></svg>
